packages/icon/src/svg/service-google-drive.icon.svg

<svg width="24" height="24" viewBox="0 0 24 24" fill="none" xmlns="http://www.w3.org/2000/svg">
<path fill-rule="evenodd" clip-rule="evenodd" d="M15.42 3L22.28 15H15.4301L8.57007 3H8.58008H15.42ZM7.71008 4.5L1.15002 16L4.58008 22L11.13 10.5L7.71008 4.5ZM9.7301 16L6.30005 22H19.42L22.8501 16H9.7301Z" fill="white"/>
</svg>

<svg aria-label="service google drive icon" viewBox="0 0 24 24"><path fill-rule="evenodd" clip-rule="evenodd" d="M15.42 3l6.86 12h-6.85L8.57 3h6.85zM7.71 4.5L1.15 16l3.43 6 6.55-11.5-3.42-6zM9.73 16L6.3 22h13.12l3.43-6H9.73z"/></svg>
